web/wp-content/themes/cncf-twenty-two/images/cncf-icon-amplify.svg

<svg width="117" height="100" viewBox="0 0 117 100" fill="none" xmlns="http://www.w3.org/2000/svg">
<path d="M78.9603 83.4137L74.4718 75.3677C78.8313 72.9421 82.4615 69.3931 84.985 65.0895C87.5085 60.786 88.8331 55.885 88.8213 50.8962C88.8094 45.9074 87.4614 41.0128 84.9174 36.7213C82.3735 32.4298 78.7265 28.8981 74.3555 26.4933L78.804 18.424C84.6146 21.6214 89.4628 26.3167 92.8446 32.0219C96.2264 37.7271 98.0185 44.234 98.0344 50.8661C98.0504 57.4983 96.2897 64.0137 92.9353 69.7351C89.581 75.4565 84.7555 80.1751 78.9603 83.4004V83.4137ZM116.647 50.9704C116.641 41.1253 114.002 31.461 109.003 22.9795C104.004 14.498 96.8268 7.50806 88.2165 2.73438L83.748 10.7937C90.9169 14.7616 96.8936 20.5753 101.058 27.6318C105.223 34.6883 107.423 42.7306 107.432 50.9243C107.44 59.118 105.256 67.1648 101.106 74.2299C96.9564 81.295 90.9918 87.1212 83.8311 91.1039L88.3129 99.1532C96.8962 94.3701 104.047 87.3828 109.028 78.9126C114.009 70.4425 116.639 60.7965 116.647 50.9704Z" fill="url(#paint0_linear_3348_12616)"/>
<path d="M56.1756 93.9234C55.5193 93.9256 54.869 93.7982 54.262 93.5485C53.655 93.2989 53.1032 92.9319 52.6384 92.4686C52.1735 92.0052 51.8047 91.4547 51.553 90.8486C51.3013 90.2424 51.1718 89.5925 51.1718 88.9362V24.1029C51.1715 23.8225 51.088 23.5486 50.932 23.3158C50.7759 23.0829 50.5543 22.9016 50.2951 22.7948C50.0359 22.688 49.7509 22.6605 49.4761 22.7158C49.2013 22.7711 48.9491 22.9067 48.7514 23.1054L32.6694 39.2739H10.0043V63.3786H30.588V73.3829H0V29.2529H28.5101L56.8771 0.739572C57.2287 0.387016 57.677 0.146673 58.1653 0.0489503C58.6535 -0.0487722 59.1597 0.00051737 59.62 0.190583C60.0802 0.380649 60.4737 0.702951 60.7507 1.11671C61.0277 1.53047 61.1757 2.01709 61.1761 2.51501V88.9229C61.1778 89.5801 61.0497 90.2311 60.799 90.8386C60.5483 91.4461 60.1801 91.998 59.7154 92.4627C59.2507 92.9274 58.6988 93.2956 58.0913 93.5463C57.4838 93.797 56.8328 93.9251 56.1756 93.9234Z" fill="black"/>
<defs>
<linearGradient id="paint0_linear_3348_12616" x1="74.3555" y1="50.9438" x2="116.647" y2="50.9438" gradientUnits="userSpaceOnUse">
<stop stop-color="#B0FA9C"/>
<stop offset="1" stop-color="#5BCBF9"/>
</linearGradient>
</defs>
</svg>

<svg width="117" height="100" fill="none" xmlns="http://www.w3.org/2000/svg"><path d="M78.96 83.414l-4.488-8.046a27.928 27.928 0 0 0-.116-48.875l4.448-8.069A37.132 37.132 0 0 1 78.96 83.4v.014zm37.687-32.444a55.192 55.192 0 0 0-28.43-48.236l-4.469 8.06a45.92 45.92 0 0 1 .083 80.31l4.482 8.05a55.208 55.208 0 0 0 28.334-48.184z" fill="url(#paint0_linear_3348_12616)"/><path d="M56.176 93.923a4.986 4.986 0 0 1-5.004-4.987V24.103a1.417 1.417 0 0 0-2.42-.998L32.668 39.274H10.004v24.105h20.584v10.004H0v-44.13h28.51L56.877.74a2.517 2.517 0 0 1 4.3 1.775v86.408a4.988 4.988 0 0 1-5.001 5z" fill="#000"/><defs><linearGradient id="paint0_linear_3348_12616" x1="74.356" y1="50.944" x2="116.647" y2="50.944" gradientUnits="userSpaceOnUse"><stop stop-color="#B0FA9C"/><stop offset="1" stop-color="#5BCBF9"/></linearGradient></defs></svg>
